X:1
T:Title
%%score { ( 1 4 5 ) | ( 2 3 ) }
L:1/8
Q:1/4=100
M:4/4
K:Eb
V:1 treble nm="Grand Piano"
V:4 treble 
V:5 treble 
V:2 bass 
V:3 bass 
V:1
 E2 E2 G2 G2 | [GB]>[_G=A] [=GB]>[_Ac] [GB]2 [Ge]2 | [Fd]2 [Ac]2 [GB]2 [FA]2 | G>_G =G>c B4 | %4
w: Ira~B.~Wilson * * *||||
 E2 E2 G2 G2 | [GB]>[_G=A] [=GB]>[_Ac] [GB]2 [Ge]2 | d2 F2 c2 F2 | [B,DB]6 z2 | [Ge]6 z2 | %9
w: |||||
 [GB]6 z2 | [B,GB]2 [B,FA]2 [B,DF]2 [DAc]2 | [Ac]>[GB] [_G=A]>[=GB] G2 (3Bcd | e2- [Ge]2 E2 E2 | %13
w: ||||
 e4 =A4 | [EB]2 [EG]2 [Dc]2 [DB]2 | E6 z2 |] %16
w: |||
V:2
 [E,G,B,]2 [E,G,B,]2 [E,B,E]2 [E,B,E]2 | [E,E]>[E,E] [E,E]>[E,E] [E,E]2 [E,B,]2 | %2
 [B,,B,]2 [B,,B,]2 [B,,B,]2 [B,,B,]2 | [E,B,E]>[E,=A,E] [E,B,E]>[E,_A,E] [E,G,E]4 | %4
 [E,G,B,]2 [E,G,B,]2 [E,B,E]2 [E,B,E]2 | [E,E]>[E,E] [E,E]>[E,E] [E,E]2 [E,B,]2 | %6
 [F,B,F]2 [F,B,D]2 [F,=A,E]2 [F,A,E]2 | z2 A,2 G,2 F,2 | [E,B,]>E, E,>E, z z/ G/ [E,B,]2 | %9
 [E,E]>E, E,>E, E,2 (3E,-[E,c]E, | B,,2 B,,2 B,,2 B,,2 | [E,E]>[E,E] [E,E]>[E,E] [E,B,E]2 z2 | %12
 [E,B,]2 [E,B,]2 [_D,G,]2 [D,G,]2 | [C,A,]2 [C,A,]2 [=B,,_G,]2 [B,,G,]2 | %14
 [B,,G,]2 [B,,B,]2 [B,,F,]2 [B,,A,]2 | [E,G,]6 z2 |] %16
V:3
 x8 | x8 | x8 | x8 | x8 | x8 | x8 | B,,6 z2 | z4 E,2 z2 | x8 | x8 | x8 | x8 | x8 | x8 | x8 |] %16
V:4
 x8 | x8 | x8 | x8 | x8 | x8 | x8 | x8 | z z/ B,/ B,>B, z z/ d/ [Gc]>[Ge] | %9
 z z/ E/ E>E E2 (3[E-G-B][EG][B,EG] | x8 | x8 | G2 z2 z4 | E2 E2 E2 E2 | x8 | x8 |] %16
V:5
 x8 | x8 | x8 | x8 | x8 | x8 | x8 | x8 | z4 B,2 z2 | x8 | x8 | x8 | x8 | x8 | x8 | x8 |] %16

